static/logos/opel-glyph-color.svg

<svg width="32" height="32" viewBox="0 0 32 32" fill="none" xmlns="http://www.w3.org/2000/svg">
<g clip-path="url(#clip0_1261_224)">
<path d="M21.1655 13.5067L22.9454 12.8677L18.8447 15.9942L17.2666 16.4793L21.1655 13.5067Z" fill="#1A1A1A"/>
<path d="M32 16.7759L30.9993 17.2954L17.2666 16.4794L18.8447 15.9943L32 16.7759Z" fill="#8C8C8C"/>
<path d="M30.9817 18.3731L8.9035 19.1207L10.685 18.4821L30.6743 17.8052L30.9817 18.3731Z" fill="#1A1A1A"/>
<path d="M8.9035 19.1208L10.685 18.4822L14.5889 15.5101L13.0103 15.9943L8.9035 19.1208Z" fill="#8C8C8C"/>
<path d="M14.5889 15.51L13.0103 15.9942L0 15.2125L1.0002 14.6936L14.5889 15.51Z" fill="#1A1A1A"/>
<path d="M1.29688 14.1875L0.984375 14.7188L14.5781 15.5156L10.6562 18.5L30.6875 17.7969L30.9844 17.2812L17.2812 16.4688L21.1562 13.5L1.29688 14.1875Z" fill="#EEEEEE"/>
<path d="M1.01843 13.6152L1.32571 14.1831L1.0002 14.6936L0 15.2126L1.01843 13.6152Z" fill="#8C8C8C"/>
<path d="M1.01843 13.6152L1.32572 14.1831L21.1655 13.5067L22.9455 12.8677" fill="url(#paint0_linear_1261_224)"/>
<path d="M30.9817 18.3731L30.6743 17.8052L30.9994 17.2954L32 16.7759" fill="#1A1A1A"/>
<path d="M27.8157 18.2419C27.4991 20.0431 26.7916 21.7983 25.6726 23.3688C21.7446 28.8825 14.2122 30.0625 8.88187 25.9994C5.44118 23.3767 3.74614 19.2006 4.03305 15.0864L3.44984 15.4196C3.27299 19.6013 5.04808 23.795 8.55036 26.4646C14.1378 30.7236 22.0051 29.4911 26.1224 23.7116C27.2706 22.1 28.0059 20.3051 28.3481 18.4622L27.8157 18.2419V18.2419Z" fill="url(#paint1_linear_1261_224)"/>
<path d="M28.562 16.5716C28.736 12.3929 26.9607 8.20323 23.4608 5.53546C17.8737 1.27634 10.0064 2.50885 5.88898 8.28837C4.74352 9.89624 4.00894 11.6865 3.66565 13.5249L4.18137 13.8415C4.49069 12.0111 5.20274 10.2259 6.33892 8.63128C10.2668 3.11762 17.7992 1.93745 23.1294 6.00064C26.5915 8.63971 28.2863 12.8515 27.9727 16.9904L28.562 16.5716V16.5716Z" fill="url(#paint2_linear_1261_224)"/>
<path d="M27.0412 18.3089C26.3644 21.7501 24.2006 24.8392 20.9165 26.4849C15.3276 29.286 8.57741 26.8612 5.86949 21.08C4.99022 19.2028 4.64365 17.199 4.76785 15.2529L4.03157 15.099C3.87985 17.2066 4.2459 19.381 5.19911 21.416C8.08614 27.5797 15.2827 30.1649 21.2415 27.1785C24.8133 25.3886 27.142 21.9971 27.8129 18.2396L27.0412 18.3089V18.3089Z" fill="url(#paint3_linear_1261_224)"/>
<path d="M27.9734 16.99C28.1419 14.8549 27.779 12.6478 26.8124 10.5843C23.9255 4.42053 16.7288 1.83545 10.77 4.82177C7.1728 6.6244 4.83648 10.0517 4.18466 13.8412L4.93056 13.9035C5.55894 10.3777 7.74355 7.19487 11.0948 5.51532C16.6841 2.71428 23.4341 5.13903 26.1419 10.9203C27.0437 12.8454 27.3851 14.9039 27.2333 16.8967L27.9734 16.99V16.99Z" fill="url(#paint4_linear_1261_224)"/>
<path d="M27.2359 16.898C27.2577 16.6017 27.2689 16.3023 27.2689 16.0001C27.2689 9.57599 22.2163 4.34961 16.0056 4.34961C10.4855 4.34961 5.88014 8.47862 4.92444 13.9077L5.58554 13.4596C6.69851 8.57465 10.948 4.92757 16.0056 4.92757C21.9081 4.92757 26.7102 9.89478 26.7102 16.0001C26.7101 16.2182 26.704 16.4362 26.6917 16.6538L27.2359 16.898V16.898Z" fill="url(#paint5_linear_1261_224)"/>
<path d="M26.4234 18.5513C25.3067 23.431 21.0595 27.0727 16.0056 27.0727C10.1033 27.0727 5.30124 22.1055 5.30124 16.0002C5.30124 15.8235 5.30532 15.6478 5.31324 15.4731L4.76548 15.252C4.75018 15.5011 4.74251 15.7506 4.74249 16.0002C4.74249 22.4244 9.79511 27.6507 16.0056 27.6507C21.4534 27.6507 26.0101 23.6294 27.0475 18.306L26.4234 18.5513Z" fill="url(#paint6_linear_1261_224)"/>
</g>
<defs>
<linearGradient id="paint0_linear_1261_224" x1="1.01843" y1="13.5254" x2="22.9455" y2="13.5254" gradientUnits="userSpaceOnUse">
<stop stop-color="#8C8C8C"/>
<stop offset="1" stop-color="#4D4D4D"/>
</linearGradient>
<linearGradient id="paint1_linear_1261_224" x1="3.43784" y1="22.0433" x2="28.3483" y2="22.0433" gradientUnits="userSpaceOnUse">
<stop offset="0.006" stop-color="#1A1A1A"/>
<stop offset="0.01" stop-color="#282828"/>
<stop offset="0.029" stop-color="#5D5D5D"/>
<stop offset="0.046" stop-color="#888888"/>
<stop offset="0.062" stop-color="#A6A6A6"/>
<stop offset="0.075" stop-color="#B9B9B9"/>
<stop offset="0.084" stop-color="#BFBFBF"/>
<stop offset="0.143" stop-color="#999999"/>
<stop offset="0.208" stop-color="#777777"/>
<stop offset="0.28" stop-color="#5A5A5A"/>
<stop offset="0.359" stop-color="#424242"/>
<stop offset="0.449" stop-color="#303030"/>
<stop offset="0.556" stop-color="#232323"/>
<stop offset="0.696" stop-color="#1C1C1C"/>
<stop offset="1" stop-color="#1A1A1A"/>
</linearGradient>
<linearGradient id="paint2_linear_1261_224" x1="3.66554" y1="9.9952" x2="28.5737" y2="9.9952" gradientUnits="userSpaceOnUse">
<stop stop-color="#E0E0E0"/>
<stop offset="0.116" stop-color="#DBDBDB"/>
<stop offset="0.26" stop-color="#CCCCCC"/>
<stop offset="0.42" stop-color="#B2B2B2"/>
<stop offset="0.59" stop-color="#8F8F8F"/>
<stop offset="0.767" stop-color="#626262"/>
<stop offset="0.843" stop-color="#4D4D4D"/>
<stop offset="1" stop-color="#1A1A1A"/>
</linearGradient>
<linearGradient id="paint3_linear_1261_224" x1="3.9984" y1="21.7597" x2="27.8128" y2="21.7597" gradientUnits="userSpaceOnUse">
<stop stop-color="#ECECEC"/>
<stop offset="0.001" stop-color="#DBDBDB"/>
<stop offset="0.002" stop-color="#D0D0D0"/>
<stop offset="0.003" stop-color="#C9C9C9"/>
<stop offset="0.006" stop-color="#C7C7C7"/>
<stop offset="0.179" stop-color="#C9C9C9"/>
<stop offset="0.28" stop-color="#D2D2D2"/>
<stop offset="0.362" stop-color="#E0E0E0"/>
<stop offset="0.434" stop-color="#F4F4F4"/>
<stop offset="0.466" stop-color="white"/>
<stop offset="0.642" stop-color="#FDFDFD"/>
<stop offset="0.734" stop-color="#F5F5F5"/>
<stop offset="0.807" stop-color="#E7E7E7"/>
<stop offset="0.869" stop-color="#D4D4D4"/>
<stop offset="0.925" stop-color="#BCBCBC"/>
<stop offset="0.976" stop-color="#9D9D9D"/>
<stop offset="1" stop-color="#8C8C8C"/>
</linearGradient>
<linearGradient id="paint4_linear_1261_224" x1="7.10611" y1="6.52427" x2="28.2391" y2="16.4226" gradientUnits="userSpaceOnUse">
<stop offset="0.006" stop-color="#C7C7C7"/>
<stop offset="0.025" stop-color="#D2D2D2"/>
<stop offset="0.055" stop-color="#DDDDDD"/>
<stop offset="0.09" stop-color="#E0E0E0"/>
<stop offset="0.098" stop-color="#E9E9E9"/>
<stop offset="0.117" stop-color="#F6F6F6"/>
<stop offset="0.142" stop-color="#FDFDFD"/>
<stop offset="0.197" stop-color="white"/>
<stop offset="0.714" stop-color="#8C8C8C"/>
<stop offset="1" stop-color="#8C8C8C"/>
</linearGradient>
<linearGradient id="paint5_linear_1261_224" x1="27.2689" y1="10.6238" x2="4.92444" y2="10.6238" gradientUnits="userSpaceOnUse">
<stop stop-color="#E0E0E0"/>
<stop offset="0.001" stop-color="#E0E0E0"/>
<stop offset="0.006" stop-color="#E0E0E0"/>
<stop offset="0.183" stop-color="#C2C2C2"/>
<stop offset="0.57" stop-color="#757575"/>
<stop offset="1" stop-color="#1A1A1A"/>
</linearGradient>
<linearGradient id="paint6_linear_1261_224" x1="27.0475" y1="21.4512" x2="4.74249" y2="21.4512" gradientUnits="userSpaceOnUse">
<stop stop-color="#1A1A1A"/>
<stop offset="0.017" stop-color="#303030"/>
<stop offset="0.061" stop-color="#656565"/>
<stop offset="0.104" stop-color="#929292"/>
<stop offset="0.146" stop-color="#B4B4B4"/>
<stop offset="0.185" stop-color="#CCCCCC"/>
<stop offset="0.221" stop-color="#DBDBDB"/>
<stop offset="0.25" stop-color="#E0E0E0"/>
<stop offset="0.36" stop-color="#DDDDDD"/>
<stop offset="0.467" stop-color="#D1D1D1"/>
<stop offset="0.572" stop-color="#BDBDBD"/>
<stop offset="0.677" stop-color="#A2A2A2"/>
<stop offset="0.781" stop-color="#7E7E7E"/>
<stop offset="0.885" stop-color="#535353"/>
<stop offset="0.987" stop-color="#212121"/>
<stop offset="1" stop-color="#1A1A1A"/>
</linearGradient>
<clipPath id="clip0_1261_224">
<rect width="32" height="32" fill="white"/>
</clipPath>
</defs>
</svg>

<svg xmlns="http://www.w3.org/2000/svg" width="64" height="64" fill="none" viewBox="0 0 32 32"><g clip-path="url(#a)"><path fill="#1A1A1A" d="m21.166 13.507 1.78-.64-4.101 3.127-1.578.485z"/><path fill="#8C8C8C" d="m32 16.776-1 .52-13.733-.817 1.578-.485z"/><path fill="#1A1A1A" d="m30.982 18.373-22.078.748 1.781-.639 19.99-.677z"/><path fill="#8C8C8C" d="m8.904 19.12 1.781-.638 3.904-2.972-1.579.484z"/><path fill="#1A1A1A" d="m14.589 15.51-1.579.484L0 15.213l1-.52z"/><path fill="#EEE" d="m1.297 14.188-.313.53 13.594.798-3.922 2.984 20.032-.703.296-.516-13.703-.812 3.875-2.969z"/><path fill="#8C8C8C" d="m1.018 13.615.308.568-.326.51-1 .52z"/><path fill="url(#b)" d="m1.018 13.615.308.568 19.84-.676 1.78-.64"/><path fill="#1A1A1A" d="m30.982 18.373-.308-.568.325-.51 1.001-.52"/><path fill="url(#c)" d="M27.816 18.242a12.6 12.6 0 0 1-2.143 5.127c-3.928 5.514-11.46 6.694-16.791 2.63-3.44-2.622-5.136-6.798-4.849-10.913l-.583.334c-.177 4.181 1.598 8.375 5.1 11.045 5.588 4.259 13.455 3.026 17.572-2.753a13.2 13.2 0 0 0 2.226-5.25z"/><path fill="url(#d)" d="M28.562 16.572c.174-4.18-1.601-8.369-5.101-11.037C17.874 1.276 10.006 2.51 5.889 8.288a13.2 13.2 0 0 0-2.223 5.237l.515.316a12.6 12.6 0 0 1 2.158-5.21c3.928-5.513 11.46-6.694 16.79-2.63 3.462 2.639 5.157 6.85 4.844 10.99z"/><path fill="url(#e)" d="M27.041 18.309c-.677 3.441-2.84 6.53-6.125 8.176-5.588 2.801-12.339.376-15.047-5.405a11.9 11.9 0 0 1-1.101-5.827l-.736-.154a12.7 12.7 0 0 0 1.167 6.317c2.887 6.164 10.084 8.749 16.042 5.762 3.572-1.79 5.901-5.18 6.572-8.938z"/><path fill="url(#f)" d="M27.973 16.99a12.7 12.7 0 0 0-1.16-6.406C23.925 4.421 16.728 1.835 10.77 4.822c-3.597 1.802-5.934 5.23-6.585 9.02l.746.061c.628-3.525 2.813-6.708 6.164-8.388 5.59-2.8 12.34-.376 15.047 5.405a11.9 11.9 0 0 1 1.091 5.977z"/><path fill="url(#g)" d="M27.236 16.898q.033-.445.033-.898c0-6.424-5.053-11.65-11.263-11.65-5.52 0-10.126 4.129-11.082 9.558l.662-.448c1.113-4.885 5.362-8.532 10.42-8.532C21.908 4.928 26.71 9.895 26.71 16q0 .327-.018.654z"/><path fill="url(#h)" d="M26.423 18.551c-1.116 4.88-5.363 8.522-10.417 8.522C10.103 27.073 5.3 22.105 5.3 16q0-.265.012-.527l-.548-.221q-.022.375-.023.748c0 6.424 5.053 11.65 11.264 11.65 5.447 0 10.004-4.02 11.042-9.344z"/></g><defs><linearGradient id="b" x1="1.018" x2="22.945" y1="13.525" y2="13.525" gradientUnits="userSpaceOnUse"><stop stop-color="#8C8C8C"/><stop offset="1" stop-color="#4D4D4D"/></linearGradient><linearGradient id="c" x1="3.438" x2="28.348" y1="22.043" y2="22.043" gradientUnits="userSpaceOnUse"><stop offset=".006" stop-color="#1A1A1A"/><stop offset=".01" stop-color="#282828"/><stop offset=".029" stop-color="#5D5D5D"/><stop offset=".046" stop-color="#888"/><stop offset=".062" stop-color="#A6A6A6"/><stop offset=".075" stop-color="#B9B9B9"/><stop offset=".084" stop-color="#BFBFBF"/><stop offset=".143" stop-color="#999"/><stop offset=".208" stop-color="#777"/><stop offset=".28" stop-color="#5A5A5A"/><stop offset=".359" stop-color="#424242"/><stop offset=".449" stop-color="#303030"/><stop offset=".556" stop-color="#232323"/><stop offset=".696" stop-color="#1C1C1C"/><stop offset="1" stop-color="#1A1A1A"/></linearGradient><linearGradient id="d" x1="3.666" x2="28.574" y1="9.995" y2="9.995" gradientUnits="userSpaceOnUse"><stop stop-color="#E0E0E0"/><stop offset=".116" stop-color="#DBDBDB"/><stop offset=".26" stop-color="#CCC"/><stop offset=".42" stop-color="#B2B2B2"/><stop offset=".59" stop-color="#8F8F8F"/><stop offset=".767" stop-color="#626262"/><stop offset=".843" stop-color="#4D4D4D"/><stop offset="1" stop-color="#1A1A1A"/></linearGradient><linearGradient id="e" x1="3.998" x2="27.813" y1="21.76" y2="21.76" gradientUnits="userSpaceOnUse"><stop stop-color="#ECECEC"/><stop offset=".001" stop-color="#DBDBDB"/><stop offset=".002" stop-color="#D0D0D0"/><stop offset=".003" stop-color="#C9C9C9"/><stop offset=".006" stop-color="#C7C7C7"/><stop offset=".179" stop-color="#C9C9C9"/><stop offset=".28" stop-color="#D2D2D2"/><stop offset=".362" stop-color="#E0E0E0"/><stop offset=".434" stop-color="#F4F4F4"/><stop offset=".466" stop-color="#fff"/><stop offset=".642" stop-color="#FDFDFD"/><stop offset=".734" stop-color="#F5F5F5"/><stop offset=".807" stop-color="#E7E7E7"/><stop offset=".869" stop-color="#D4D4D4"/><stop offset=".925" stop-color="#BCBCBC"/><stop offset=".976" stop-color="#9D9D9D"/><stop offset="1" stop-color="#8C8C8C"/></linearGradient><linearGradient id="f" x1="7.106" x2="28.239" y1="6.524" y2="16.423" gradientUnits="userSpaceOnUse"><stop offset=".006" stop-color="#C7C7C7"/><stop offset=".025" stop-color="#D2D2D2"/><stop offset=".055" stop-color="#DDD"/><stop offset=".09" stop-color="#E0E0E0"/><stop offset=".098" stop-color="#E9E9E9"/><stop offset=".117" stop-color="#F6F6F6"/><stop offset=".142" stop-color="#FDFDFD"/><stop offset=".197" stop-color="#fff"/><stop offset=".714" stop-color="#8C8C8C"/><stop offset="1" stop-color="#8C8C8C"/></linearGradient><linearGradient id="g" x1="27.269" x2="4.924" y1="10.624" y2="10.624" gradientUnits="userSpaceOnUse"><stop stop-color="#E0E0E0"/><stop offset=".001" stop-color="#E0E0E0"/><stop offset=".006" stop-color="#E0E0E0"/><stop offset=".183" stop-color="#C2C2C2"/><stop offset=".57" stop-color="#757575"/><stop offset="1" stop-color="#1A1A1A"/></linearGradient><linearGradient id="h" x1="27.047" x2="4.742" y1="21.451" y2="21.451" gradientUnits="userSpaceOnUse"><stop stop-color="#1A1A1A"/><stop offset=".017" stop-color="#303030"/><stop offset=".061" stop-color="#656565"/><stop offset=".104" stop-color="#929292"/><stop offset=".146" stop-color="#B4B4B4"/><stop offset=".185" stop-color="#CCC"/><stop offset=".221" stop-color="#DBDBDB"/><stop offset=".25" stop-color="#E0E0E0"/><stop offset=".36" stop-color="#DDD"/><stop offset=".467" stop-color="#D1D1D1"/><stop offset=".572" stop-color="#BDBDBD"/><stop offset=".677" stop-color="#A2A2A2"/><stop offset=".781" stop-color="#7E7E7E"/><stop offset=".885" stop-color="#535353"/><stop offset=".987" stop-color="#212121"/><stop offset="1" stop-color="#1A1A1A"/></linearGradient><clipPath id="a"><path fill="#fff" d="M0 0h32v32H0z"/></clipPath></defs></svg>
